X:47
T:Mrs. Dundas Mcquien's Reel
S:Petrie's Third Collection of Strathspey Reels and Country Dances &c.
Z:Steve Wyrick , 7/30/05
N:Petrie's Third Collection, page 18 & 19
L:1/8
M:C
R:Reel
K:A
cAec dBfd|cAec (ef/g/) ae|cAec dBfd|cA A/A/A f2 ed|cAec dBfd|
cAec (ef/g/a)e|cAec dBfd|cA A/A/A f2eg||(a/g/f/e/) ae dBfg|aeag f2 (e/f/g)|
aefc dBed|cA A/A/A f2eg|(a/g/f/e/ a)c dBfg|aeag f2 (ef/g/)|aefc dBed|(cAAa) faea|]
